X:1
T:Ashham
T:A Major         William Billings, 1778
T:Isaac Watts, 1709 (Hymn 67, Book 1)                      88. 88. (L. M.)
T:Transcribed from The Singing Master's Assistant, 1778.
%%score [ 1 2 3 4 ]
L:1/8
Q:1/8=100
M:6/8
K:A
V:1 treble nm="Tr." snm="Tr."
V:2 treble nm="C." snm="C."
V:3 treble-8 nm="T." snm="T."
V:4 bass nm="B." snm="B."
V:1
"_1. Thou whom my soul admires above   All     earthly   joy   and     earthly   love,  Tell   me,   dear Shepherd,  let  me know, Where doth thy  sweetest   pasture  grow?\n2. Where is   the shadow   of that rock,  That  from the sun  de –fends  thy flock?  Fain  would  I   feed  a–mong  thy sheep, A  –  mong them rest, among them sleep." A | %1
 cB A B2 c | dc B c2 B | AB c/A/ B2 A | AB c/>d/ e2 e | ed c/B/ cA B | cB A B2 B | Bc d eA A | %8
 dc B c3 |] %9
V:2
"_3. Why should thy bride appear like one That turns a – side  to      paths unknown? My  constant  feet  would  never   rove,  Would  ne – ver   seek  a – no – ther love." E | %1
 E2 E (EF) E | F2 E E2 E | E2 F G2 A | E2 F/A/ G2 E | EF E AF E | F2 E E2 E | E2 A GF E | %8
 F2 E E3 |] %9
V:3
"_4. The   footsteps   of   thy   flock  I  see;  Thy  sweetest  pastures     here  they  be;   A wondrous feast thy love prepares, Bought with thy wounds and groans and tears.\n5. His  dearest  flesh  he makes my food,  And  bids me  drink  his   richest blood:  Here  to   these  hills  my  soul  will come,   Till    my   Be – lo – ved   lead  me home." A | %1
 AB c B2 A | BA G A2 B | cB A e2 d | cB A/>c/ B2 B | EA G Ac B | Ad c c<B e | ec A Bd c | %8
 BA G A3 |] %9
V:4
 A, | A,G, A, E,D, C, | D,2 E, A,,2 E, | A,G, F, E,2 F,/>G,/ | A,G, F, E,2 E, | C,D, E, F,A, G, | %6
 F,D, A,, E,2 E, | E,A, F, E,D, C, | D,2 E, A,,3 |] %9

